-----BEGIN PGP SIGNATURE-----
Version: BCPG v@RELEASE_NAME@

iQIzBAABCAAdFiEETqTQrGBCqHbqu7Amw1AcEG31QsAFAmlEtD4ACgkQw1AcEG31
QsAxgw/8DZtP3twIDpj9ssC97dRblK9sTAGESX07xhd0dBcZhwl4ht7584Blpv/t
lEh/mdLfy2yF2m9YaXBAvCbnEzcfJlIf2PLjCsz/qk5VEoBUhZ72Zf32UIwyH6jY
0Ungbghb48JFnE2IKy5NZlRuicl1/zvpRWkH4a5z4FiFy//B8wNCW6c7hoPIqYn/
ndm8Cjpfjv/53T059h3Tz8IMbm7pFuH1NEASs9rMZipT9RUi9iNRC2BnJHZ/WX/P
NKBuQSbkjSBRde1K7e0O5++lm5Lzsvx6jg+YuFWoEqisO1vh1XKCrHHjQB+BK2Cg
4r6qHdmP+j9EfFBnwXPmZWDSGE+Ph9p+EGMCrwgTJqQTV9e093LSzAL5VOx1csxH
chLuMp0SvnWplPXTa1wI00/ngAYDNQR92Q6OGggRYkw5hGoPa/HGMiAS/PR2H+Eb
UXkkcqXz+isK5ddTmVuEFetO9hwvaaAvDdZPg1nYVf7pZ9f+/8xV0WL4DnwsidnC
FysS/zjVHOG/+sBkSTPLytts3enTbDFrOe088rCNA/Xy+8Au/2NX4UfQWcvhFRo0
4GRvPqg9XpeWJLzy8zr7Rta1Kw2C8a8XgJ9vdre7ZhbGRfNRaOFnHRkSnToXFHCN
2bpT85qDdb6TYYJRiMkl0lli+eF6tcVQ/05IvAQlPOfmwK6IQeE=
=uLGH
-----END PGP SIGNATURE-----
