-----BEGIN PGP SIGNATURE-----
Version: BCPG v@RELEASE_NAME@

iQIzBAABCAAdFiEETqTQrGBCqHbqu7Amw1AcEG31QsAFAmlEtJsACgkQw1AcEG31
QsC4pA/9Em4rSBZARxMKaxkP4x+6qSqr4YuvT309/px30CWXOJd9X/1rQeYYpn/I
4unpewMpUQHcNvecxvOr91BJN7b1a7jiNSNjeGJeefulc2+dpDXaWnTWiaCnkicn
jmIVW03wJGy/9f1F071DMGsZTT11R9UcUjTcbCd7JVBH7cEtGFRSbqclaYz3bKWK
CLl5/G5NpB06UQfFKUSRzPfdOfF5LaR9EheLgBrzZbXsJ4B6ExIcndnCJCXd4Trp
rSxhKP2plz2icUosPXHDn87sVIG6TOehB1DH1dMDBn4dgtqbiPHWFRwBXEPP4y12
LtYS4TyJCGO1qrmEnG8TsrgTvsfJptPRdiNxgAjiLQzErAtCa5fvGGfHluw6CAP6
axVudnM6Oh31vJ2FfZXpm8rrs/5iQ0qFYeMIG4d9rbipgnfrNyCW1xv2er58xAUA
GxYLIPnCRtFNXpCSVVZHhDh2/oYlG6a6lTAephFiEhZizVH1Mn+QJi/RfrK6VD7Y
VZjLtYQ7aBH73KazxbPrxMXz6+qN/E/g/+zduTUPd9+JoN+t56Xvnw+P4pb/7YPL
H6gjp8wNF5eeJnSgs1TqKZn/fUUehKyzUhbMH44Vrhp8twIQBoIcuVhpUdL9ze/G
YisotDrIEUiR5cWHCHRhI9FZ5UCljXLH2dzUN4Mg18jIjDdm1Rk=
=fRN6
-----END PGP SIGNATURE-----
